X: 22922
T: Larry O'Gaff's
R: jig
M: 6/8
K: Gmajor
g2G BAG|ded dBG|cec BdB|ABc def|
g2G BAG|ded dBG|cec BdB|AGA G3:|
deg {a}gfg|{a}gfg afd|d2a {b}aga|{b}aga b2a|
gba gfe|dge dBG|cec BdB|AGA G3:|

